!!!COM:	Ravel
!!!OTL:	299_Rav-32/1-2/1-12
**kern	**dynam	**kern
*grp:A	*	*grp:B
*part2	*part2	*part1
*staff2	*S	*staff1
*I"Soprano Solo	*	*I"Violoncello
*I'S. Solo	*	*I'Vc.
*clefG2	*	*clefF4
*k[]	*	*k[]
*C:	*	*C:
*M6/8	*	*M6/8
=1	=1	=1
4r	p	(16gLL
.	.	16fJ
.	.	8d
8r	.	8AJ)
8r	.	(8.gL
(32a^KLL	.	.
16.ccJ	.	.
.	.	16fL
[8bJ	.	16d
.	.	16AJJ)
=2	=2	=2
8bL]	.	(8d
8b)	.	4A)
(8ddJ	.	.
8gL	.	(8dL
8g	.	8A)
32a^KL	.	([8g^J
16.ccJJ	.	.
=3	=3	=3
[4.b	.	16gLL]
.	.	16f
.	.	16dJ
.	.	8A)
.	.	(8g
8bL]	.	.
.	.	8.f)
16bL)	.	.
(16cc	.	.
16b	.	([8dJ
16bJJ	.	.
=4	=4	=4
8gL	.	8d]
8e	.	4A)
16gL	.	.
16gJJ	.	.
16aLL	.	(8dL
16a	.	.
16b)	.	8e)
(16ccJ	.	.
32bKL	.	[8dJ
16.bJJ	.	.
=5	=5	=5
*M2/4	*	*M2/4
8gL	.	8d]
8eJ	.	4A
16gLL	.	.
16g	.	.
16a	.	(8d
16aJJ	.	.
=6	=6	=6
!!linebreak:original
*M6/8	*	*M6/8
16bLL	.	4e)
16a	.	.
16g	.	.
16e	.	.
16d	.	(8E
16aJJ	.	.
16eLL	.	8AL
16a	.	.
16g	.	8d)
16e	.	.
16d	.	(8EJ
16aJJ	.	.
=7	=7	=7
[4.e	.	8AL
.	.	8d)
.	.	(8EJ
8e])	.	8AL)
8r	.	(16dL
.	.	16cJ)
8r	.	8BJ
=8	=8	=8
4r	.	8AL
.	.	(16GL
.	.	16EJ)
8r	.	[8DJ
8r	.	4.D_
(8aL	.	.
8bJ	.	.
=9	=9	=9
*M9/8	*	*M9/8
4cc	.	8DL]
.	.	(8a^
[8cc	.	8gJ)
8cc])	.	8dL
8r	.	(16a^L
.	.	16g)
(8b	.	(16a
.	.	16gJJ)
8aL	.	(8.dL
8b	.	.
.	.	16gk
8ddJ	.	8eJ)
=10	=10	=10
!!linebreak:original
*M6/8	*	*M6/8
4ee	.	(16BLL
.	.	16cJ
.	.	8d)
32dd^KLL	.	([8f#X^J
16.bJJ	.	.
8aL	.	16f#LL]
.	.	16eJ
8a)	.	8c
(8eeJ	.	8GJ)
=11	=11	=11
8ddL	.	(8.f#XL
8dd	.	.
.	.	16eL
32ee^KL	.	16c
16.bJJ	.	.
.	.	16GJJ)
4a	.	(8cL
.	.	8G
8a)	.	8DJ)
=12	=12	=12
8r	.	(16GLL
.	.	16cJ
16r	.	8d
(16gLL	.	.
16a	.	8eJ)
16aJJ	.	.
8ccL	.	(4g
16ccL	.	.
16dd	.	.
16b	.	8e)
16bJJ)	.	.
==	==	==
*-	*-	*-
!!!system-decoration: s1,s2
!!!ONB: Converted from MusicXML on 2019/06/04 and edited by Craig Stuart Sapp
!!!EEV: 2019/10/08
